_site/assets/img/git.svg

<svg width="56" height="56" viewBox="0 0 56 56" fill="none" xmlns="http://www.w3.org/2000/svg">
<g style="mix-blend-mode:luminosity">
<path d="M4.52438 30.4731C3.15854 29.1072 3.15854 26.8928 4.52438 25.5269L25.5269 4.52438C26.8928 3.15854 29.1072 3.15854 30.4731 4.52438L51.4756 25.5269C52.8415 26.8928 52.8415 29.1072 51.4756 30.4731L30.4731 51.4756C29.1072 52.8415 26.8928 52.8415 25.5269 51.4756L4.52438 30.4731Z" fill="#EE513B"/>
<path d="M21.2616 8.85791L19.1348 10.9848L24.6278 16.4778C24.4057 16.9546 24.2816 17.4863 24.2816 18.0469C24.2816 19.6387 25.2817 20.9969 26.6878 21.5274V34.9648C25.2817 35.4954 24.2816 36.8536 24.2816 38.4453C24.2816 40.4992 25.9465 42.1641 28.0003 42.1641C30.0542 42.1641 31.7191 40.4992 31.7191 38.4453C31.7191 37.0022 30.897 35.7511 29.6957 35.1346V21.5456L34.9466 26.7966C34.7352 27.2636 34.6175 27.7822 34.6175 28.3282C34.6175 30.382 36.2825 32.0469 38.3363 32.0469C40.3901 32.0469 42.055 30.382 42.055 28.3282C42.055 26.2744 40.3901 24.6094 38.3363 24.6094C37.9372 24.6094 37.5527 24.6723 37.1924 24.7887L31.553 19.1493C31.6609 18.801 31.7191 18.4307 31.7191 18.0469C31.7191 15.9931 30.0542 14.3282 28.0003 14.3282C27.6165 14.3282 27.2463 14.3863 26.898 14.4943L21.2616 8.85791Z" fill="white"/>
</g>
</svg>

<svg width="56" height="56" fill="none" xmlns="http://www.w3.org/2000/svg"><g style="mix-blend-mode:luminosity"><path d="M4.524 30.473a3.498 3.498 0 010-4.946L25.527 4.524a3.498 3.498 0 014.946 0l21.003 21.003a3.497 3.497 0 010 4.946L30.473 51.476a3.497 3.497 0 01-4.946 0L4.524 30.473z" fill="#EE513B"/><path d="M21.262 8.858l-2.127 2.127 5.493 5.493a3.72 3.72 0 002.06 5.05v13.437a3.72 3.72 0 001.312 7.2 3.719 3.719 0 001.696-7.03v-13.59l5.25 5.252a3.719 3.719 0 102.246-2.008l-5.639-5.64a3.719 3.719 0 00-4.655-4.655l-5.636-5.636z" fill="#fff"/></g></svg>
